resources/devtools/sources/marko.svg

<svg width="256" height="140" preserveAspectRatio="xMidYMid">
  <defs>
    <linearGradient id="marko_svg__a" x1="49.911%" x2="49.911%" y1="99.908%" y2="-.09%">
      <stop offset="0%" stop-color="#8AC23E"/>
      <stop offset="100%" stop-color="#8AC23E" stop-opacity="0"/>
    </linearGradient>
    <linearGradient id="marko_svg__b" x1="49.984%" x2="49.984%" y1=".064%" y2="100.062%">
      <stop offset="0%" stop-color="#698932"/>
      <stop offset="100%" stop-color="#698932" stop-opacity="0"/>
    </linearGradient>
    <linearGradient id="marko_svg__c" x1="50.06%" x2="50.06%" y1=".064%" y2="100.062%">
      <stop offset="0%" stop-color="#FFED01"/>
      <stop offset="100%" stop-color="#FFED01" stop-opacity="0"/>
    </linearGradient>
    <linearGradient id="marko_svg__d" x1="50.017%" x2="50.017%" y1=".064%" y2="100.093%">
      <stop offset="0%" stop-color="#E02A89"/>
      <stop offset="100%" stop-color="#E02A89" stop-opacity="0"/>
    </linearGradient>
    <linearGradient id="marko_svg__e" x1="49.963%" x2="49.963%" y1="-.092%" y2="99.907%">
      <stop offset="0%" stop-color="#7F1E4F"/>
      <stop offset="100%" stop-color="#7F1E4F" stop-opacity="0"/>
    </linearGradient>
    <linearGradient id="marko_svg__f" x1="49.965%" x2="49.965%" y1="-.092%" y2="99.907%">
      <stop offset="0%" stop-color="#E95506"/>
      <stop offset="100%" stop-color="#E95506" stop-opacity="0"/>
    </linearGradient>
    <linearGradient id="marko_svg__g" x1="49.977%" x2="49.977%" y1="99.908%" y2="-.027%">
      <stop offset="0%" stop-color="#88D0F1"/>
      <stop offset="100%" stop-color="#88D0F1" stop-opacity="0"/>
    </linearGradient>
    <linearGradient id="marko_svg__h" x1="50.021%" x2="50.021%" y1=".064%" y2="99.999%">
      <stop offset="0%" stop-color="#00828B"/>
      <stop offset="83.25%" stop-color="#00828B" stop-opacity="0"/>
    </linearGradient>
    <linearGradient id="marko_svg__i" x1="50.078%" x2="50.078%" y1="99.975%" y2=".071%">
      <stop offset="0%" stop-color="#2073BA"/>
      <stop offset="100%" stop-color="#2073BA" stop-opacity="0"/>
    </linearGradient>
    <linearGradient id="marko_svg__j" x1="50.018%" x2="50.018%" y1=".064%" y2="99.999%">
      <stop offset="0%" stop-color="#8ED0E1"/>
      <stop offset="100%" stop-color="#88D0F1" stop-opacity="0"/>
    </linearGradient>
  </defs>
  <path fill="#8DC220" d="M128.1 0h36.1c-13.3 21.8-28 45.8-42.7 69.7H85.4c14.7-23.9 29.4-47.9 42.7-69.7Z"/>
  <path fill="#44BFEF" d="M42.7 0h36.1c-7.1 11.6-14.3 23.3-21.4 34.9L36.1 69.7c7.1 11.6 14.2 23.3 21.3 34.9 7.1 11.6 14.2 23.2 21.4 34.8H42.7c-7.1-11.6-14.3-23.2-21.4-34.8C14.2 93.1 7.1 81.4 0 69.8L21.3 35c7.1-11.7 14.3-23.3 21.4-35Z"/>
  <path fill="#00AC71" d="M42.7 0c14.7 24 29.4 48 42.7 69.7h36.1C108.2 48 93.5 24 78.8 0H42.7Z"/>
  <path fill="#F9BC00" d="M164.2 0h-36.1c7.1 11.6 14.2 23.3 21.4 34.9 7.1 11.6 14.2 23.2 21.4 34.8-7.1 11.6-14.3 23.3-21.4 34.9-7.1 11.6-14.2 23.2-21.4 34.8h36.1c7.1-11.6 14.2-23.2 21.4-34.8 7.1-11.6 14.2-23.2 21.4-34.9-7.2-11.6-14.3-23.2-21.4-34.8-7.1-11.6-14.3-23.2-21.4-34.9Z"/>
  <path fill="url(#marko_svg__a)" d="M149.3 24.6h-36.1c-4.6 7.5-9.2 15.1-13.8 22.6-4.6 7.5-9.2 15.1-13.9 22.6h36.1c4.6-7.5 9.3-15.1 13.9-22.6 4.5-7.6 9.1-15.1 13.8-22.6Z"/>
  <path fill="url(#marko_svg__b)" d="M100.5 45.2h36.1c4.6-7.5 9.2-15.1 13.8-22.6 4.6-7.5 9.2-15.1 13.8-22.6h-36.1c-4.6 7.5-9.2 15.1-13.8 22.6-4.6 7.6-9.2 15.1-13.8 22.6Z"/>
  <path fill="url(#marko_svg__c)" d="M191.9 45.2h-36.1c-4.6-7.5-9.3-15.1-13.9-22.6-4.6-7.5-9.2-15.1-13.8-22.6h36.1c4.6 7.5 9.2 15.1 13.8 22.6 4.7 7.6 9.3 15.1 13.9 22.6Z"/>
  <path fill="#DF1B1C" d="M213.2 0h-36.1c7.1 11.7 14.2 23.3 21.3 34.9 7.1 11.6 14.3 23.2 21.4 34.8-7.1 11.6-14.3 23.3-21.4 34.9-7.1 11.6-14.2 23.2-21.4 34.8h36.1c7.1-11.6 14.2-23.2 21.4-34.8 7.1-11.6 14.2-23.2 21.4-34.9-7.1-11.6-14.2-23.2-21.4-34.8-7-11.6-14.2-23.2-21.3-34.9Z"/>
  <path fill="url(#marko_svg__d)" d="M240.9 45.2h-36.1c-4.7-7.5-9.3-15.1-13.9-22.6-4.6-7.5-9.2-15.1-13.8-22.6h36.1c4.6 7.5 9.2 15.1 13.8 22.6 4.6 7.6 9.3 15.1 13.9 22.6Z"/>
  <path fill="url(#marko_svg__e)" d="M192.2 115h36.1c4.6-7.5 9.2-15 13.8-22.6 4.6-7.5 9.2-15.1 13.9-22.6h-36.2c-4.6 7.5-9.2 15.1-13.8 22.6-4.6 7.5-9.2 15-13.8 22.6Z"/>
  <path fill="url(#marko_svg__f)" d="M143.2 115h36.1c4.6-7.5 9.2-15.1 13.8-22.6 4.6-7.5 9.2-15.1 13.9-22.6h-36.1c-4.6 7.5-9.2 15.1-13.8 22.6-4.7 7.5-9.3 15-13.9 22.6Z"/>
  <path fill="url(#marko_svg__g)" d="M63.8 24.6H27.7c-4.6 7.5-9.2 15.1-13.8 22.6C9.2 54.7 4.6 62.3 0 69.8h36.1c4.6-7.5 9.2-15 13.8-22.6 4.6-7.5 9.2-15.1 13.9-22.6Z"/>
  <path fill="url(#marko_svg__h)" d="M15 45.2h36.1c4.6-7.5 9.2-15.1 13.8-22.6C69.6 15.1 74.2 7.5 78.8 0H42.7c-4.6 7.5-9.2 15-13.8 22.6-4.6 7.5-9.2 15.1-13.9 22.6Z"/>
  <path fill="url(#marko_svg__i)" d="M15 94.3h36.1c4.6 7.5 9.2 15.1 13.8 22.6 4.6 7.5 9.2 15.1 13.8 22.6H42.6c-4.6-7.5-9.3-15-13.9-22.6-4.5-7.5-9.1-15-13.7-22.6Z"/>
  <path fill="url(#marko_svg__j)" d="M106.5 45.2H70.4c-4.6-7.5-9.2-15.1-13.8-22.6C51.9 15.1 47.3 7.5 42.7 0h36.1c4.6 7.5 9.2 15 13.8 22.6 4.7 7.5 9.3 15.1 13.9 22.6Z"/>
</svg>

<!-- This Source Code Form is subject to the terms of the Mozilla Public
   - License, v. 2.0. If a copy of the MPL was not distributed with this
   - file, You can obtain one at http://mozilla.org/MPL/2.0/. -->
<svg width="256px" height="140px" viewBox="0 0 256 140" version="1.1" xmlns="http://www.w3.org/2000/svg" preserveAspectRatio="xMidYMid">
    <defs>
        <linearGradient x1="49.9109718%" y1="99.9084071%" x2="49.9109718%" y2="-0.0902654867%" id="linearGradient-1">
            <stop stop-color="#8AC23E" offset="0%"></stop>
            <stop stop-color="#8AC23E" stop-opacity="0" offset="100%"></stop>
        </linearGradient>
        <linearGradient x1="49.9835165%" y1="0.0637125664%" x2="49.9835165%" y2="100.062389%" id="linearGradient-2">
            <stop stop-color="#698932" offset="0%"></stop>
            <stop stop-color="#698932" stop-opacity="0" offset="100%"></stop>
        </linearGradient>
        <linearGradient x1="50.0595611%" y1="0.0637125664%" x2="50.0595611%" y2="100.062389%" id="linearGradient-3">
            <stop stop-color="#FFED01" offset="0%"></stop>
            <stop stop-color="#FFED01" stop-opacity="0" offset="100%"></stop>
        </linearGradient>
        <linearGradient x1="50.0170846%" y1="0.0637125664%" x2="50.0170846%" y2="100.092699%" id="linearGradient-4">
            <stop stop-color="#E02A89" offset="0%"></stop>
            <stop stop-color="#E02A89" stop-opacity="0" offset="100%"></stop>
        </linearGradient>
        <linearGradient x1="49.9631661%" y1="-0.0915929204%" x2="49.9631661%" y2="99.9070796%" id="linearGradient-5">
            <stop stop-color="#7F1E4F" offset="0%"></stop>
            <stop stop-color="#7F1E4F" stop-opacity="0" offset="100%"></stop>
        </linearGradient>
        <linearGradient x1="49.9652038%" y1="-0.0915929204%" x2="49.9652038%" y2="99.9070796%" id="linearGradient-6">
            <stop stop-color="#E95506" offset="0%"></stop>
            <stop stop-color="#E95506" stop-opacity="0" offset="100%"></stop>
        </linearGradient>
        <linearGradient x1="49.9766458%" y1="99.9084071%" x2="49.9766458%" y2="-0.0265486726%" id="linearGradient-7">
            <stop stop-color="#88D0F1" offset="0%"></stop>
            <stop stop-color="#88D0F1" stop-opacity="0" offset="100%"></stop>
        </linearGradient>
        <linearGradient x1="50.0205329%" y1="0.0637125664%" x2="50.0205329%" y2="99.9986726%" id="linearGradient-8">
            <stop stop-color="#00828B" offset="0%"></stop>
            <stop stop-color="#00828B" stop-opacity="0" offset="83.25%"></stop>
        </linearGradient>
        <linearGradient x1="50.078022%" y1="99.9752212%" x2="50.078022%" y2="0.0705752212%" id="linearGradient-9">
            <stop stop-color="#2073BA" offset="0%"></stop>
            <stop stop-color="#2073BA" stop-opacity="0" offset="100%"></stop>
        </linearGradient>
        <linearGradient x1="50.0177116%" y1="0.0637125664%" x2="50.0177116%" y2="99.9986726%" id="linearGradient-10">
            <stop stop-color="#8ED0E1" offset="0%"></stop>
            <stop stop-color="#88D0F1" stop-opacity="0" offset="100%"></stop>
        </linearGradient>
    </defs>
  <g>
    <path d="M128.1,0 L164.2,0 C150.9,21.8 136.2,45.8 121.5,69.7 L85.4,69.7 C100.1,45.8 114.8,21.8 128.1,0 Z" fill="#8DC220"></path>
    <path d="M42.7,0 L78.8,0 C71.7,11.6 64.5,23.3 57.4,34.9 C50.3,46.5 43.2,58.1 36.1,69.7 C43.2,81.3 50.3,93 57.4,104.6 C64.5,116.2 71.6,127.8 78.8,139.4 L42.7,139.4 C35.6,127.8 28.4,116.2 21.3,104.6 C14.2,93.1 7.1,81.4 0,69.8 C7.1,58.2 14.2,46.6 21.3,35 C28.4,23.3 35.6,11.7 42.7,0 Z" fill="#44BFEF"></path>
    <path d="M42.7,0 L42.7,0 C57.4,24 72.1,48 85.4,69.7 L121.5,69.7 C108.2,48 93.5,24 78.8,0 L78.8,0 L42.7,0 Z" fill="#00AC71"></path>
    <path d="M164.2,0 L128.1,0 C135.2,11.6 142.3,23.3 149.5,34.9 C156.6,46.5 163.7,58.1 170.9,69.7 C163.8,81.3 156.6,93 149.5,104.6 C142.4,116.2 135.3,127.8 128.1,139.4 L164.2,139.4 C171.3,127.8 178.4,116.2 185.6,104.6 C192.7,93 199.8,81.4 207,69.7 C199.8,58.1 192.7,46.5 185.6,34.9 C178.5,23.3 171.3,11.7 164.2,0 Z" fill="#F9BC00"></path>
    <path d="M149.3,24.6 L113.2,24.6 C108.6,32.1 104,39.7 99.4,47.2 C94.8,54.7 90.2,62.3 85.5,69.8 L121.6,69.8 C126.2,62.3 130.9,54.7 135.5,47.2 C140,39.6 144.6,32.1 149.3,24.6 Z" fill="url(#linearGradient-1)"></path>
    <path d="M100.5,45.2 L136.6,45.2 C141.2,37.7 145.8,30.1 150.4,22.6 C155,15.1 159.6,7.5 164.2,0 L128.1,0 C123.5,7.5 118.9,15.1 114.3,22.6 C109.7,30.2 105.1,37.7 100.5,45.2 Z" fill="url(#linearGradient-2)"></path>
    <path d="M191.9,45.2 L155.8,45.2 C151.2,37.7 146.5,30.1 141.9,22.6 C137.3,15.1 132.7,7.5 128.1,0 L164.2,0 C168.8,7.5 173.4,15.1 178,22.6 C182.7,30.2 187.3,37.7 191.9,45.2 Z" fill="url(#linearGradient-3)"></path>
    <path d="M213.2,0 L177.1,0 C184.2,11.7 191.3,23.3 198.4,34.9 C205.5,46.5 212.7,58.1 219.8,69.7 C212.7,81.3 205.5,93 198.4,104.6 C191.3,116.2 184.2,127.8 177,139.4 L213.1,139.4 C220.2,127.8 227.3,116.2 234.5,104.6 C241.6,93 248.7,81.4 255.9,69.7 C248.8,58.1 241.7,46.5 234.5,34.9 C227.5,23.3 220.3,11.7 213.2,0 Z" fill="#DF1B1C"></path>
    <path d="M240.9,45.2 L204.8,45.2 C200.1,37.7 195.5,30.1 190.9,22.6 C186.3,15.1 181.7,7.5 177.1,0 L213.2,0 C217.8,7.5 222.4,15.1 227,22.6 C231.6,30.2 236.3,37.7 240.9,45.2 Z" fill="url(#linearGradient-4)"></path>
    <path d="M192.2,115 L228.3,115 C232.9,107.5 237.5,100 242.1,92.4 C246.7,84.9 251.3,77.3 256,69.8 L219.8,69.8 C215.2,77.3 210.6,84.9 206,92.4 C201.4,99.9 196.8,107.4 192.2,115 Z" fill="url(#linearGradient-5)"></path>
    <path d="M143.2,115 L179.3,115 C183.9,107.5 188.5,99.9 193.1,92.4 C197.7,84.9 202.3,77.3 207,69.8 L170.9,69.8 C166.3,77.3 161.7,84.9 157.1,92.4 C152.4,99.9 147.8,107.4 143.2,115 Z" fill="url(#linearGradient-6)"></path>
    <path d="M63.8,24.6 L27.7,24.6 C23.1,32.1 18.5,39.7 13.9,47.2 C9.2,54.7 4.6,62.3 0,69.8 L36.1,69.8 C40.7,62.3 45.3,54.8 49.9,47.2 C54.5,39.7 59.1,32.1 63.8,24.6 Z" fill="url(#linearGradient-7)"></path>
    <path d="M15,45.2 L51.1,45.2 C55.7,37.7 60.3,30.1 64.9,22.6 C69.6,15.1 74.2,7.5 78.8,0 L42.7,0 C38.1,7.5 33.5,15 28.9,22.6 C24.3,30.1 19.7,37.7 15,45.2 Z" fill="url(#linearGradient-8)"></path>
    <path d="M15,94.3 L51.1,94.3 C55.7,101.8 60.3,109.4 64.9,116.9 C69.5,124.4 74.1,132 78.7,139.5 L42.6,139.5 C38,132 33.3,124.5 28.7,116.9 C24.2,109.4 19.6,101.9 15,94.3 Z" fill="url(#linearGradient-9)"></path>
    <path d="M106.5,45.2 L70.4,45.2 C65.8,37.7 61.2,30.1 56.6,22.6 C51.9,15.1 47.3,7.5 42.7,0 L78.8,0 C83.4,7.5 88,15 92.6,22.6 C97.3,30.1 101.9,37.7 106.5,45.2 Z" fill="url(#linearGradient-10)"></path>
  </g>
</svg>
